X:1
T:James Gibb editions
T:Loquebantur variis linguis - Palestrina
T:#
%%score [ 1 2 3 4 ]
L:1/8
Q:1/4=80
M:2/2
K:Eb
V:1 treble nm="Soprano" snm="S"
V:2 treble nm="Alto" snm="A"
V:3 treble-8 nm="Tenor" snm="T"
V:4 bass nm="Bass" snm="B"
V:1
"^Loquebantur variis linguis""^G. P. da Palestrina\n(1526-94)""^moderato" z8 | z8 |!f! B8 | %3
w: ||Lo-|
 c4 !>!d4 |"^," B2 e3 e d2 | c4"^," B2 (EF |[M:2/2] GA"^," B4 A2) | (G2 B3 A G2- | G2) F2 E4 | %9
w: que- ban-|tur va- ri- is|lin- guis A\- *||po\- * * *|* sto- li,|
 z4 B4- | B4 c4 | d4"^," B2 e2- | ee d2 c4 |"^," B4 F4 | (GABG AB c2- |!>(! cB B4)!>)! =A2 | B8- | %17
w: lo\-|* que-|ban- tur va\-|* ri- is lin-|guis A-|po\- * * * * * *|* * * sto-|li,|
 B4 z4 | z4 z2!mf! B2 | c2 B2 (GABG | A2"^," B2) (c4 |"^," B2 c3 BcA | B2 c2"^," F2 B2- | %23
w: |mag-|na- li- a * * *|* * De\-|||
 B2 =A2) B4 | z4 z2!f! B2 | c2 B2 (EFGE |"^," F4)!>(! (G3 A!>)! | B4) E4- | E4 z4 | z2!mf! e4 d2 | %30
w: * * i,|mag-|na- li- a * * *|* De\- *|* i,||pro- ut|
 c4 B2 c2 | A4 G4- | G4 z4 | z2 B2"^," A2 F2 | (GFGA B2 c2 | A2)"^," G2 F4 | E4 z4 | z4 z2!f! e2 | %38
w: Spi- ri- tus|San- ctus||da- bat e-|lo\- * * * * *|* qui il-|lis,|da-|
 c2 d2 e4 |"^," d4 c4 | B4 z2!mf! B2 | A2 F2 (GFGA | B2 c2 A4) |"^," G2 (B4 =A2) | B8- | B4 z4 | %46
w: bat e- lo-|qui il-|lis, da-|bat e- lo\- * * *||qui il\- *|lis.||
 z8 | z4 z2!f! e2- | e2 d2 (c2 B2) |"^," c2 e2 d2 (c2- | c"^,"B B4 =A2) | B4 z4 | z8 | %53
w: |Al\-|* le- lu\- *|ja, al- le- lu\-||ia.||
 z2!mf! B2 c2 c2 | (B3- A"^," G2) (c2- | cB BA/G/ A4) | G4 z4 | z2 G2 A2 A2 | (G3 A"^," B2 c2- | %59
w: Re- ple- ti|sunt * * o\-||mnes|Spi- ri- tu|San\- * * *|
 cB B4 A2 | G4) F4 | z4 z2!f! B2- | B2 c2 d2 B2 | (e3 d c4 |"^," B3 A GF B2- | B2 A2 G4 | %66
w: |* cto,|et|* coe~- pe- runt|lo\- * *|||
"^,"!>(! F2 B4 =A2)!>)! | B8- | B4 z2!mf! e2- | e2"^," d2 !>!c4 | B2 c2 !>!A4 | G8 | z4 z2 B2 | %73
w: |qui,|* pro\-|* ut Spi-|ri- tus San-|ctus|da-|
"^," A2 F2 (GFGA | B2 c2 A2) G2 | F4 E4 | z8 | z2!f! e2 c2 d2 | e4 d4 | c4 B4 | %80
w: bat e- lo\- * * *|* * * qui|il- lis,||da- bat e-|lo- qui|il- lis,|
 z2!mf! B2"^," A2 F2 | (GFGA B2 c2 | A4)"^," G2 (B2- | B2 =A2) B4- | B4 z4 | z8 | z2!f! e2 d2 c2 | %87
w: da- bat e-|lo\- * * * * *|* qui il\-|* * lis.|||Al- le- lu-|
 (d3 B cd e2- |"^," edcB ABcA | B3 A"^," G2) E2 | (F3 G A2 B2 | c2 (B4 =A2) | B4 z2 B2 | %93
w: ia, * * * *||* * * al-|le\- * * *|* lu\- *|ia, al-|
 A2 G2 A3 G |"^," F2) A2 G2!>(! (F2- | F"^,"E!>)! E4"^rit."[Q:1/4=79] D2) |[Q:1/4=75] E8- | %97
w: le- lu- ia, *|* al- le- lu\-||ia.|
[Q:1/4=70] E8 |[Q:1/4=68] E8 |] %99
w: ||
V:2
!f! E8 | F4 !>!G4 |"^," E2 E3 E D2 | C4 B,4 | (E3 F GA B2- |"^," B2 A2) (G3 F | %6
w: Lo-|que- ban-|tur va- ri- is|lin- guis|A\- * * * *|* * po\- *|
[M:2/2] E2 D2 C2) C2 |"^," B,4 (G,3 F,) | (G,A, B,4) =A,2 | B,4 z4 | z4 z2 F2- | F2 F2 G4 | %12
w: * * * sto-|li, A\- *|po\- * * sto-|li,|lo\-|* que- ban-|
"^," E2 B3 B A2 | (G2 FE D2 C2) |"^," D2 B,2 (CDEF |!>(! G2) E2 F4!>)! | z2!f! F2 G2 F2 | %17
w: tur va- ri- is|lin\- * * * *|guis A- po\- * * *|* sto- li,|mag- na- li-|
 (DEFD E2 F2) | (G4 F2 E2- | E2 D2) E4 | z8 | z8 | z4 z2!f! F2 | G2 F2 (DEFD | E2"^," F2) (G4 | %25
w: a * * * * *|De\- * *|* * i,|||mag-|na- li- a * * *|* * De\-|
"^," F2 G3 F E2- | E2 D2) E4 | z8 | z8 |!mf! E4 G4 | A4 G2 E2 | F4 E4 | z8 | z2 E2"^," C2 D2 | %34
w: |* * i,|||pro- ut|Spi- ri- tus|San- ctus||da- bat e-|
 (E3 F G2) E2 | (F2 E4 D2) |"^," (E6 D C | B,4) z4 | z2!f! F2"^," E2 C2 | (DCDE F4) | %40
w: lo\- * * qui|il\- * *|lis, * *||da- bat e-|lo\- * * * *|
"^," D2 (G2 F2 E2 |!>(! F4)!>)! B,4 | z2!mf! E2 C2 D2 | E2"^," E2 F4 | D8 | z8 | z2!f! C2 D2 (E2 | %47
w: qui il\- * *|* lis,|da- bat e-|lo- qui il-|lis.||Al- le- lu\-|
 F4) E4 | z2 B2 A2 G2 | (A3 G"^," F2) E2 | D2 (CB, C4) | B,4 z4 | z8 | z2!mf! B,2 E2 F2 | %54
w: * ia,|al- le- lu-|ia, * * al-|le- lu\- * *|a,.||Re- ple- ti|
 (G3 A B2) (A2- | AG G4 F2) | G4 z4 | E4 C2 D2 | (E3 F"^," G2 E2- | ED B,2 C4 |"^," B,2 E4 D2 | %61
w: sunt * * o\-||mnes|Spi- ri- tu|San\- * * *|||
 G4) F4 | z8 | z2!f! E4 F2 | G2"^," E2 (B3 A | G2 FE"^," D2 E2 |!>(! F8)!>)! | F4 z4 | z4!mf! E4 | %69
w: * cto,||et coe-|pe- runt lo\- *|||qui,|pro-|
"^," G4 !>!A4 | G2 E2 !>!F4 | E4 z4 | z4 z2 E2 |"^," C2 D2 (E3 F | G2 E2)"^," F2 (E2- | %75
w: ut Spi-|ri- tus San-|ctus|da-|bat e- lo\- *|* * qui il\-|
 E2 D2) (E4- | E2 DC B,4) | z4 z2!f! F2 |"^," E2 C2 (DCDE | F4) D2 (G2 | F2!>(! E2 F4)!>)! | %81
w: * * lis,||da-|bat e- lo\- * * *|* qui il\-||
 B,4 z2!mf! E2 | C2 D2 E2 E2 | F4 D4 | z8 | z8 | z8 | z2!f! B2 A2 G2 | (A3 G"^," F2) A2 | %89
w: lis, da-|bat e- lo- qui|il- lis.||||Al- le- lu-|ia, * * al-|
 G2 (F3"^," E E2- | E2 D2 C2 B,2 | E2 G2) F4 | z2 F2 E2 D2 | (E3 D"^," C2) E2 | %94
w: le- lu\- * *||* * ia,|al- le- lu-|ia, * * al-|
 D2 (C3"^," B,!>(! B,2- | B,2!>)! =A,2)"^rit." B,4 | z2!f! B,2 A,2 G,2 | (C8 | B,8) |] %99
w: le- lu\- * *|* * ia.|al- le- lu-|ia.||
V:3
 z8 | z8 | z8 | z8 | z8 | z8 |[M:2/2][K:treble-8] z8 | z4!f! B4- | B4 c4 | !>!d4"^," B2 e2- | %10
w: |||||||Lo\-|* que-|ban- tur va\-|
 ee d2 c4 |"^," B2 d2 (e3 d | c2 B2 f4 | (B3 c de f2- |"^," f2 e2) f2 e2- | %15
w: * ri- is lin-|guis A- po\- *|* sto- li,|A\- * * * *|* * po\- *|
!>(! ed"^," B2 c2)!>)! c2 | (d3 c/d/ e2 dc | B4) z4 | z8 | z4 z2!mf! e2 | f2 e2 (cdec | %21
w: * * * * sto-|li, * * * * *|||mag-|na- li- a * * *|
 d2"^," e2) (f4 |!<(! e6!<)! d2) | c4 z2!f! B2 | c2 B2 (GABG | A2"^," B2) c4 | B4 z2!mf! e2- | %27
w: * * De\-||i, mag-|na- li- a * * *|* * De-|i, pro\-|
 e2"^," d2 c4 | B2 c2 (A4 | B2 c4 B2 | A4) E4 | z4 z2 e2- | e2 d2 c4 | B2 G2 A4 | B4 z2 A2 | %35
w: * ut Spi-|ri- tus San\-||* ctus,|pro\-|* ut Spi-|ri- tus San-|ctus da-|
 F2 G2 (A2 B2) |"^," E2 B2 A2 F2 | (GFGA B2) c2 | (A2 B4 =A2) | B4 z4 | z2!f! e2"^," d2 B2 | %41
w: bat e- lo\- *|qui, da- bat e-|lo\- * * * * qui|il\- * *|lis,|da- bat e-|
 (cBcd!>(! e4)!>)! |"^," d2!mf! (c4 BA | B4 c4) | B4 z2!f! f2 | e2 d2 (e3 d |"^," c2) e2 (d2 c2- | %47
w: lo\- * * * *|qui il\- * *||lis. Al-|le- lu- ia *|* al- le\- *|
 c"^,"B B4) =A2 | B4 z2 e2 | c2 (_A2 B2 E2 | G4) F4 | z2!mf! B2 c2 c2 | (B3 c"^," d2) (e2- | %53
w: * * * lu-|ia, al-|le- lu\- * *|* ia.|Re- ple- ti|sunt * * o\-|
 ed d2 c4) | d4 z4 | z2 e2 c2 d2 | (e3 d"^," B2 c2- | cB B2 A4 | B3 A G2 A2) | E4 z4 | %60
w: |mnes|Spi- ri- tu|San\- * * *|||cto,|
 z4 z2!f! B2- | B2 c2 d2 B2 | e4 d2 (e2- | edcB A4) | E2 (e3 d B2 | c4)"^," B2 (e2- | %66
w: et|* coe~- pe- runt|lo- qui, et||coe- pe\- * *|* runt lo\-|
 ed dc/B/!>(! c4)!>)! | d4 z2!mf! e2- | e2 d2 c4 | B2"^," B2 A4 | E4 z4 | z2 e4 d2 | !>!c4 B2 G2 | %73
w: |qui, pro\-|* ut Spi-|ri- tus San-|ctus|pro- ut|Spi- ri- tus|
 !>!A4 B4 | z2 A2 F2 G2 | (A2 B2)"^," E2 B2 |"^," A2 F2 (GFGA | B2)"^," c2 (A2 B2- | B2 =A2) B4 | %79
w: San- ctus|da- bat e-|lo\- * qui, da-|bat e- lo\- * * *|* qui il\- *|* * lis,|
 z4 z2!f! e2 |"^," d2 B2 (cBcd |!>(! e4)!>)!"^," d2!mf! (c2- | c2 BA B4 | c4)"^," B2!f! f2 | %84
w: da-|bat e- lo\- * * *|* qui il\-||* lis. Al-|
 e2 d2 (e3 d |"^," c2) e2 d2 (c2- | cB B4 =A2) | B4 z4 | z4 z2 f2 | e2 d2 (e2 c2 | B4) z4 | %91
w: le- lu- ia, *|* al- le- lu\-||ia,|al-|le- lu- ia, *||
 z2 e2 d2 c2 |"^," d4 B4 | (c3 B AG A2) | B2 F2 z2!>(! F2 | (G2!>)! E2)"^rit." F4 | E4 z2!f! B2 | %97
w: al- le- lu-|ia, al-|le\- * * * *|lu- ia. al-|le\- * lu-|ia, al-|
 (A2 G2) A4 | G8 |] %99
w: le\- * lu-|ia.|
V:4
 z8 | z8 | z8 | z8 | z8 | z4!f! E,4- |[M:2/2] E,4 F,4 | !>!G,4"^," E,2 E,2- | E,E, D,2 C,4 | %9
w: |||||Lo\-|* que-|ban- tur va\-|* ri- is lin-|
"^," B,,4 (E,3 F, | G,A, B,4 =A,2) | B,2 B,2 E,4 | z8 | z2 B,3 B, A,2 | G,4"^," F,2 (C,D, | %15
w: guis A\- *||po- sto- li,||va- ri- is|lin- guis A\- *|
!>(! E,F, G,2) F,2!>)! F,2 | B,,4 z4 | z2!mf! B,2 C2 B,2 | (G,A,B,G, A,2 G,2) | (A,2 B,2) E,4 | %20
w: * * * po- sto-|li,|mag- na- li-|a * * * * *|De\- * i,|
 z4 z2 A,2 | B,2 A,2 (F,G,A,F, |!<(! G,2"^," A,2) (B,4!<)! | E,2 F,2) B,,4 | z8 | z8 | z4!mf! E,4 | %27
w: mag-|na- li- a * * *|* * De\-|* * i,|||pro-|
"^," G,4 A,4 | G,2 E,2 F,4 | E,4 z4 | z8 | z4 E,4 |"^," G,4 A,4 | G,2 E,2 F,4 | E,4 z4 | z8 | %36
w: ut Spi-|ri- tus San-|ctus,||pro-|ut Spi-|ri- tus San-|ctus||
 z2 E,2 C,2 D,2 | (E,3 F, G,2) E,2 | (F,2 D,2 C,4) |"^," B,,2!f! B,2 A,2 F,2 | (G,F,G,A, B,2 G,2) | %41
w: da- bat e-|lo\- * * qui|il\- * *|lis, da- bat e-|lo\- * * * * *|
"^,"!>(! F,4!>)!!mf! (E,3 F, | G,2 A,4 G,F, |"^," E,2 G,2 F,4) | B,,8 | z2!f! B,2 A,2 G,2 | %46
w: qui il\- *|||lis.|Al- le- lu-|
 (A,3 G,"^," F,2) E,2 | D,2 (C,B,, C,4) | B,,4 z4 | z8 | z8 | z2!mf! B,,2 E,2 F,2 | %52
w: ia, * * al-|le- lu\- * *|ia.|||Re- ple- ti|
 (G,3 A,"^," B,2) (C2- | CB, G,2 A,4) | G,4 z4 | z2 E,2 F,2 F,2 | (E,3 F,"^," G,2 A,2- | %57
w: sunt * * o\-||mnes|Spi- ri- tu|San\- * * *|
 A,G, E,2 F,4) | E,4 z4 | z2!f! E,4 F,2 | G,2"^," E,2 (B,4 | E,4) B,4 | z8 | z8 | z4 z2 E,2- | %65
w: |cto,|et coe-|pe- runt lo\-|* qui,|||et|
 E,2 F,2 G,2 E,2 |!>(! (B,4!>)! F,4) |"^," B,,4!mf! E,4 | G,4 A,3 A, | G,4 z4 | z8 | E,4 G,4 | %72
w: * coe- pe- runt|lo\- *|qui, pro-|ut Spi- ri-|tus,||pro- ut|
 !>!A,4 G,2 E,2 | !>!F,4 E,4 | z8 | z4 z2 E,2 | C,2 D,2 (E,3 F, | G,2)"^," E,2 (F,2 D,2 | %78
w: Spi- ri- tus|San- ctus||da-|bat e- lo\- *|* qui il\- *|
 C,4"^," B,,2!f! B,2 |"^," A,2 F,2 (G,F,G,A, | B,2!>(! G,2) F,4!>)! |!mf! E,3 F, G,2 A,2- | %82
w: * lis, da-|bat e- lo\- * * *|* * qui|il\- * * *|
 A,2 G,F,"^," E,2 G,2 | F,4) B,,4 | z2!f! B,2 A,2 G,2 | (A,3 G, F,2) (A,2- | A,G,) E,2 F,4 | %87
w: |* lis.|Al- le- lu-|ia, * * al\-|* * le- lu-|
 B,,4 z4 | z8 | z8 | z2 B,2 A,2 G,2 |"^," A,2 E,2 F,4 | (B,3 A, G,F, G,2) | C,4 z4 | %94
w: ia,|||al- le- lu-|ia, al- le-|lu\- * * * *|ia,|
 z2 F,2 (E,2!>(! D,2 | E,2!>)! C,2)"^rit." B,,4 | E,4 z2!f! E,2 | C,4 A,,4 | E,8 |] %99
w: al- le\- *|* * lu-|ia, al-|le- lu-|ia.|

